icons/svgs/fire-solid.svg

<svg width="24" height="24" viewBox="0 0 24 24" fill="none" xmlns="http://www.w3.org/2000/svg">
<path d="M9.46094 2.23438C9.77344 1.96094 10.2422 1.96094 10.5547 2.23438C11.6094 3.25 12.625 4.34375 13.5625 5.51562C13.9922 4.96875 14.5 4.34375 15.0078 3.83594C15.3203 3.5625 15.7891 3.5625 16.1016 3.83594C17.4688 5.125 18.6016 6.84375 19.4219 8.44531C20.2031 10.0469 20.75 11.6875 20.75 12.8203C20.75 17.8203 16.8438 22 12 22C7.07812 22 3.25 17.8203 3.25 12.8203C3.25 11.3359 3.91406 9.5 5.00781 7.66406C6.10156 5.82812 7.625 3.91406 9.46094 2.23438ZM12.0391 18.25C13.0547 18.25 13.9141 17.9766 14.7344 17.4297C16.375 16.2969 16.8047 13.9922 15.8281 12.1953C15.6719 11.8438 15.2031 11.8047 14.9688 12.1172L13.9531 13.25C13.7188 13.5625 13.25 13.5625 13.0156 13.25C12.3516 12.4297 11.2188 10.9453 10.5547 10.125C10.3203 9.8125 9.85156 9.8125 9.57812 10.125C8.25 11.7656 7.58594 12.8203 7.58594 13.9922C7.625 16.6875 9.57812 18.25 12.0391 18.25Z" fill="black"/>
</svg>

<svg xmlns="http://www.w3.org/2000/svg" width="24" height="24" fill="currentColor" class="icon-fire-solid" viewBox="0 0 24 24">
  <mask id="a" width="18" height="20" x="3" y="2" maskUnits="userSpaceOnUse" style="mask-type:alpha">
    <path d="M9.46 2.234a.83.83 0 0 1 1.095 0 34 34 0 0 1 3.008 3.282c.43-.547.937-1.172 1.445-1.68a.83.83 0 0 1 1.094 0c1.367 1.289 2.5 3.008 3.32 4.61.781 1.6 1.328 3.242 1.328 4.374 0 5-3.906 9.18-8.75 9.18-4.922 0-8.75-4.18-8.75-9.18 0-1.484.664-3.32 1.758-5.156s2.617-3.75 4.453-5.43m2.58 16.016a4.67 4.67 0 0 0 2.694-.82c1.641-1.133 2.07-3.438 1.094-5.235-.156-.351-.625-.39-.86-.078l-1.015 1.133a.586.586 0 0 1-.937 0c-.664-.82-1.797-2.305-2.461-3.125-.235-.312-.703-.312-.977 0-1.328 1.64-1.992 2.695-1.992 3.867.039 2.695 1.992 4.258 4.453 4.258"/>
  </mask>
  <g mask="url(#a)">
    <path d="M0 0h24v24H0z"/>
  </g>
</svg>
